actions/16/transform-affect-gradient.svg

<svg xmlns="http://www.w3.org/2000/svg" viewBox="0 0 16 16">
  <defs id="defs3051">
    <style type="text/css" id="current-color-scheme">
      .ColorScheme-Text {
        color:#808080;
      }
      </style>
  </defs>
 <g transform="translate(-421.71-531.79)">
  <path 
     d="m 2,6 0,-3 11,0 0,8 -3,0 0,-5 z"
      transform="translate(421.71 531.79)" 
     style="fill:currentColor;fill-opacity:0.5;stroke:none" 
     class="ColorScheme-Text"
      />
  <path 
      d="m2 2v1h11v8h1v-8-1h-12m0 4v1h7v4h1v-4-1h-8" 
      transform="translate(421.71 531.79)" 
     style="fill:currentColor;fill-opacity:1;stroke:none" 
     class="ColorScheme-Text"
      />
  <path 
      d="m426.88 546.12l-.707-.707 1.621-1.621h-4.076v-1h4.076l-1.621-1.621.707-.707 2.828 2.828-.707.707z" 
     style="fill:#1d99f3"
      />
 </g>
</svg>

<svg xmlns="http://www.w3.org/2000/svg" version="1.1" viewBox="0 0 16 16">
 <defs>
  <style id="current-color-scheme" type="text/css">
   .ColorScheme-Text { color:#808080; }
  </style>
 </defs>
 <g transform="translate(-421.71,-531.79)">
  <path class="ColorScheme-Text" d="M 2,6 V 3 H 13 V 11 H 10 V 6 Z" transform="translate(421.71,531.79)" style="color:#808080;fill:currentColor;fill-opacity:0.5"/>
  <path class="ColorScheme-Text" d="M 2,2 V 3 H 13 V 11 H 14 V 3 2 H 2 M 2,6 V 7 H 9 V 11 H 10 V 7 6 H 2" transform="translate(421.71,531.79)" style="color:#808080;fill:currentColor"/>
  <path d="M 426.88,546.12 426.17,545.41 427.79,543.79 H 423.72 V 542.79 H 427.79 L 426.17,541.17 426.88,540.46 429.71,543.29 429,544 Z" style="fill:#1d99f3"/>
 </g>
</svg>
